X:1
T:Nearer Home, SMD
T:Nearer Home, SMD
T:Isaac Woodbury, 1852; harm. A. S.Sullivan 1874
T:Public Domain Courtesy of the Cyber Hymnal™
C:Isaac Woodbury, 1852; harm. A. S.Sullivan 1874
Z:Public Domain
Z:Courtesy of the Cyber Hymnal™
%%score ( 1 2 ) ( 3 4 )
L:1/8
Q:1/4=113
M:4/4
K:A
V:1 treble 
V:2 treble 
V:3 bass 
V:4 bass 
V:1
 [CE]2 | [CE]2 E2 c3 z B | [CA]6 [EA]2 | [GB]3 [GB] [FA]2 [EB]2 | [Ec]6 [Ec]2 | %5
 [Fd]3 [Fd] [Fd]2 [EB]2 | [Ec]3 [Ec] [Ec]2 [EA]2 | [FB]2 [FB]2 [Ec]2 [DB]2 | [CA]6 A2 | %9
 [GB]3 [GB] [EA]2 [GB]2 | [Ac]8 | [Ac]2 [Ac][Ac] [GB]2 [Ec]2 | [Fd]6 [Fd]2 | %13
 [Ec]2 [Ge]2 [Ae]2 [Ec]2 | [Ec]2 [EA]2 [FA]2 [DF]2 | [CE]2 [EA]2 c3 z B | A6 |] %17
V:2
 x2 | x2 E2 E2 D2 x | x8 | x8 | x8 | x8 | x8 | x8 | x6 A2 | x8 | x8 | x8 | x8 | x8 | x8 | %15
 x4 A2 G2 x | A6 |] %17
V:3
 [A,,A,]2 | [A,,A,]2 [C,A,]2 [E,A,]2 [E,G,]2 x | [A,,A,]6 [C,A,]2 | [E,D]3 [E,D] [F,C]2 [G,B,]2 | %4
 A,6 A,2 | [F,A,]3 [F,A,] [F,A,]2 [G,B,]2 | A,3 A, A,2 [C,A,]2 | [D,A,]2 [D,A,]2 [E,G,]2 [E,G,]2 | %8
 [A,,A,]6 [A,C]2 | [E,E]3 [E,E] [E,C]2 [E,E]2 | [A,E]8 | [A,E]2 [A,E][A,E] [E,E]2 A,2 | %12
 [D,A,]6 [F,A,]2 | [A,C]2 [B,D]2 [CE]2 A,2 | [C,A,]2 [C,A,]2 [D,A,]2 [D,A,]2 | %15
 [E,A,]2 [E,C]2 [E,E]2 [E,D]2 x | [A,,C]6 |] %17
V:4
 x2 | x9 | x8 | x8 | A,6 A,2 | x8 | A,3 A, A,2 x2 | x8 | x8 | x8 | x8 | x6 A,2 | x8 | x6 A,2 | x8 | %15
 x9 | x6 |] %17

